X: 25
T: Out of the Deep I Cry to Thee
M: 4/4 % time signature
L: 1/4 % default length
%%staves (S1V1 S1V2) | (S2V1 S2V2) 
V: S1V1 clef=treble 
%%MIDI beat 127 125 110 1
V: S1V2 
%%MIDI beat 127 125 110 1
V: S2V1 clef=bass 
%%MIDI beat 127 125 110 1
V: S2V2 
%%MIDI beat 127 125 110 1
K: C % key signature
%
%%MIDI program 1 0 % Piano 1
%%MIDI program 2 0 % Piano 1
%%MIDI program 3 0 % Piano 1
%%MIDI program 4 0 % Piano 1
%
% 1
[V: S1V1] [Q:1/4=110] B2 E B | c B/A/ =G A | B2 B2 | c d c/B/ A | (G F) E2 |
w: 1.~Out of the deep I * cry to thee; O Lord God, hear * my cry- * ing: 
w: 2.~But love and grace with * thee pre- vail, O God, our sins * for- giv- * ing; 
w: 3.~For this, my hope in * God shall rest, Naught build- ing on * my mer- * it; 
w: 4.~And though I wait the * live- long night And till the morn * re- turn- * eth, 
w: 5.~What though our sins are * man- i- fold? Su- preme his mer- * cy reign- * eth; 
[V: S1V2]  E2 E ^G | A =G/F/ E ^F | ^G2 ^G2 | A B c F | (E D/C/) B,2 |
[V: S2V1]  ^G,2 A, D | E D E/D/ C | B,2 E2 | E F G C | (C/B,/ A,) ^G,2 |
[V: S2V2]  E,2 C, B,, | A,, B,, C,/B,,/ A,, | E,2 E,2 | A, =G,/F,/ E, F, | (C, D,) E,2 |
% 5
[V: S1V1]  B2 E B | c B/A/ =G A | B2 B2 | c d c/B/ A | (G F) E2 |
w: In- cline thy gra- cious * ear to me, With prayer to thee * ap- ply- * ing. 
w: The ho- liest deeds can * naught a- vail Of all be- fore * thee liv- * ing. 
w: My heart con- fides, of * him pos- sest, his good- ness stays * my spi- * rit. 
w: My heart un- doubt- ing * trusts his might Nor in im- pa- * tience mourn- * eth. 
w: No lim- it can his * hand with- hold, Where ev- il most * ob- tain- * eth. 
[V: S1V2]  E2 E ^G | A =G/F/ E ^F | ^G2 ^G2 | A B c F | (E D/C/) B,2 |
[V: S2V1]  ^G,2 A, D | E D E/D/ C | B,2 E2 | E F G C | (C/B,/ A,) ^G,2 |
[V: S2V2]  E,2 C, B,, | A,, B,, C,/B,,/ A,, | E,2 E,2 | A, =G,/F,/ E, F, | (C, D,) E,2 |
% 13
[V: S1V1]  A2 G c | B A d/c/ B | A2 c2 | B c d
w: For if thou fix thy search- * ing eye On all sin and 
w: Be- fore thee none can boast * him clear; There- fore must each 
w: His prec- ious word as- sur- * eth me; My sol- ace, my 
w: Born of his Spi- rit, Is- * ra- el In the right Way 
w: He the Good Shep- herd is * a- lone, who Is- rael will 
[V: S1V2]  E2 D E/^F/ | G A B/A/ ^G | E2 A2 | =G G G/F/
[V: S2V1]  A,2 B, C | D D/E/ F B, | C2 E2 | E E D
[V: S2V2]  C2 B, A, | G, F,/E,/ D, E, | A,,2 A,2 | E, D,/C,/ B,,
% 17
[V: S1V1]  G | B A G2 | !sintro!G2 c B | A E (G F) | E4 !eintro!|]
w: in- iq- ui- ty, Who, Lord, can stand be- fore * thee? 
w: Thy judg- ment fear, And live on thy com- pas- * sion. 
w: sure Rock is he, Where- on my soul a- bid- * eth. 
w: thus far- eth well, And on his God re- pos- * eth 
w: re- deem and own, For- giv- ing all trans- gres- * sion. 
[V: S1V2]  E | D C B,2 | E2 E E/D/ | C C (D2 | D) (C B,2) |]
[V: S2V1]  C | (^F,/ G,) F,/ G,2 | G,2 A, ^G, | A, G, (G, A, | =B, A,) ^G,2 |]
[V: S2V2]  C, | D, [D,,D,] G,,2 | C,2 A,, E, | F, C, (_B,, A,, | ^G,, A,,) [E,,2E,2] |]
% 20


